X: 16395
T: Gylen Castle
R: strathspey
M: 4/4
K: Dmajor
A>B|c<e d>c B<G B>d|c<A d>B c<A A>a|f<g f>e d2 e>d|c<A B>d c<A B>d|
c<e d>c B<G B>d|c<A d>B c<A A>a|f<g f>e d2 e>d|c<A B>d c<A A2||
a>e c<e g>d B<d|a>e c<e a>f g>e|a>e c<e g>d B<d|a>f g>e e<f f<g|
a>e c<e g>d B<d|a>e c<e a>f g>e|a>f g<e f>d e<c|d>B G<B D>G B<d||

